X: 1
T:Richards Next Polska
R:Polska
O:England
M:3/4
C:Richard Robinson
A:Leeds
K:Am
A2 cB G<B | A2 ce d<e | d>B A<B G2 |\
A2 cB G<B | d2 f>d c<d |1 B2 A4 :|2 B2 A3 \
|: d | \
f>d c<d fg | (3a2f2a2 g<e |\
f>d c<d fg | af g2 e2 | d>B A<B Gd |\
f>d c<d fg | (3a2f2a2 g<e |\
f>d c<d fg | af g2 e2 | d2f>d c<d | B2 A3 :|
W:Copyright (C) Richard Robinson
